documentation/public/assets/images/input.svg

<svg width="293" height="40" viewBox="0 0 293 40" fill="none" xmlns="http://www.w3.org/2000/svg">
<rect x="0.5" y="0.5" width="292" height="39" rx="3.5" fill="white"/>
<path d="M12.7727 15.6136V14.3636H21.5V15.6136H17.8409V26H16.4318V15.6136H12.7727ZM25.8864 26.1818C25.0455 26.1818 24.3201 25.9962 23.7102 25.625C23.1042 25.25 22.6364 24.7273 22.3068 24.0568C21.9811 23.3826 21.8182 22.5985 21.8182 21.7045C21.8182 20.8106 21.9811 20.0227 22.3068 19.3409C22.6364 18.6553 23.0947 18.1212 23.6818 17.7386C24.2727 17.3523 24.9621 17.1591 25.75 17.1591C26.2045 17.1591 26.6534 17.2348 27.0966 17.3864C27.5398 17.5379 27.9432 17.7841 28.3068 18.125C28.6705 18.4621 28.9602 18.9091 29.1761 19.4659C29.392 20.0227 29.5 20.7083 29.5 21.5227V22.0909H22.7727V20.9318H28.1364C28.1364 20.4394 28.0379 20 27.8409 19.6136C27.6477 19.2273 27.3712 18.9223 27.0114 18.6989C26.6553 18.4754 26.2348 18.3636 25.75 18.3636C25.2159 18.3636 24.7538 18.4962 24.3636 18.7614C23.9773 19.0227 23.6799 19.3636 23.4716 19.7841C23.2633 20.2045 23.1591 20.6553 23.1591 21.1364V21.9091C23.1591 22.5682 23.2727 23.1269 23.5 23.5852C23.7311 24.0398 24.0511 24.3864 24.4602 24.625C24.8693 24.8598 25.3447 24.9773 25.8864 24.9773C26.2386 24.9773 26.5568 24.928 26.8409 24.8295C27.1288 24.7273 27.3769 24.5758 27.5852 24.375C27.7936 24.1705 27.9545 23.9167 28.0682 23.6136L29.3636 23.9773C29.2273 24.4167 28.9981 24.803 28.6761 25.1364C28.3542 25.4659 27.9564 25.7235 27.483 25.9091C27.0095 26.0909 26.4773 26.1818 25.8864 26.1818ZM32.3054 17.2727L34.3963 20.8409L36.4872 17.2727H38.0327L35.2145 21.6364L38.0327 26H36.4872L34.3963 22.6136L32.3054 26H30.7599L33.5327 21.6364L30.7599 17.2727H32.3054ZM43.7415 17.2727V18.4091H39.2188V17.2727H43.7415ZM40.5369 15.1818H41.8778V23.5C41.8778 23.8788 41.9328 24.1629 42.0426 24.3523C42.1563 24.5379 42.3002 24.6629 42.4744 24.7273C42.6525 24.7879 42.84 24.8182 43.0369 24.8182C43.1847 24.8182 43.3059 24.8106 43.4006 24.7955C43.4953 24.7765 43.571 24.7614 43.6278 24.75L43.9006 25.9545C43.8097 25.9886 43.6828 26.0227 43.5199 26.0568C43.357 26.0947 43.1506 26.1136 42.9006 26.1136C42.5218 26.1136 42.1506 26.0322 41.7869 25.8693C41.4271 25.7064 41.1278 25.4583 40.8892 25.125C40.6544 24.7917 40.5369 24.3712 40.5369 23.8636V15.1818Z" fill="#1F1F1F"/>
<rect x="0.5" y="0.5" width="292" height="39" rx="3.5" stroke="#545454"/>
</svg>

<svg width="293" height="40" fill="none" xmlns="http://www.w3.org/2000/svg"><rect x=".5" y=".5" width="292" height="39" rx="3.5" fill="#fff"/><path d="M12.77 15.61v-1.25h8.73v1.25h-3.66V26h-1.4V15.61h-3.67ZM25.9 26.18a3.74 3.74 0 0 1-3.58-2.13 5.35 5.35 0 0 1-.5-2.35c0-.89.17-1.68.5-2.36a3.7 3.7 0 0 1 3.44-2.18 4 4 0 0 1 1.35.23 3.34 3.34 0 0 1 2.08 2.08c.21.55.32 1.24.32 2.05v.57h-6.73v-1.16h5.37c0-.5-.1-.93-.3-1.32a2.23 2.23 0 0 0-2.09-1.25 2.47 2.47 0 0 0-2.28 1.42 3 3 0 0 0-.31 1.36v.77c0 .66.11 1.22.34 1.68a2.48 2.48 0 0 0 2.39 1.39c.35 0 .67-.05.95-.15.29-.1.54-.25.75-.45.2-.2.36-.46.48-.77l1.3.37a2.9 2.9 0 0 1-.7 1.16c-.32.33-.71.58-1.19.77-.47.18-1 .27-1.6.27Zm6.42-8.9 2.09 3.56 2.09-3.57h1.54l-2.82 4.37L38.03 26H36.5l-2.1-3.39L32.32 26h-1.55l2.77-4.36-2.77-4.37h1.55Zm11.43 0v1.13h-4.52v-1.14h4.52Zm-3.2-2.1h1.34v8.32c0 .38.05.66.16.85.12.19.26.31.43.38.18.06.37.09.57.09.14 0 .27 0 .36-.02l.23-.05.27 1.2a2.73 2.73 0 0 1-1 .16 2.7 2.7 0 0 1-1.11-.24 2.21 2.21 0 0 1-.9-.75 2.14 2.14 0 0 1-.35-1.26v-8.68Z" fill="#1F1F1F"/><rect x=".5" y=".5" width="292" height="39" rx="3.5" stroke="#545454"/></svg>
